X:1
T:Prélude e-moll
T:Prélude e-moll
T:Frédéric Chopin
T:Largo.
C:Frédéric Chopin
Z:Largo.
%%score { 1 | 2 }
L:1/8
Q:1/4=40
M:2/2
K:G
V:1 treble nm="Piano" snm="Pno."
V:2 bass 
V:1
"_expressivo"!p!"_4." (B,>B | B6 c2 | B6 c2 | B6 c2 | B6 _B2 | A6 =B2 | A6 B2 | A6 B>A | %8
 A6 !>!^G2- | G2!<(! AB!>(! dcEA!<)!!>)! | F6) (A2 | F6){/B} (A2 | =GFCB, ^DF!>(! (3=dcB!>)! | %13
!p! B6 c2 | B6 c2 | B>^A !turn!^^A2!>(! g2 f>e!>)! |!f!!<(! e^dc'd d!>(!egB!<)!!>)! | %17
 =dc (3eEA"_dim." F3 A |!p! F6){/B} (A2 | (F6-)!<(! F>E!<)! |"_smorz."!>(! E6 F2!>)! | %21
 E4 !fermata!z4 | z8) |!pp! (E4 ^D4 | !fermata!E6) z2 |] %25
V:2
 z2 | ([G,B,E][G,B,E][G,B,E][G,B,E] [G,B,E][G,B,E][G,B,E][G,B,E] | %2
 [F,A,E][F,A,E][F,A,E][F,A,E] [F,A,_E][F,A,E][F,A,E][F,A,E] | %3
 [=F,A,_E][F,A,E][F,A,E][F,A,E] [F,A,D][F,A,D][F,^G,D][F,G,D] | %4
 [E,^G,D][E,G,D][E,G,D][E,G,D] [E,=G,D][E,G,D][E,G,^C][E,G,C] | %5
 [E,G,=C][E,G,C][E,G,C][E,G,C] [E,^F,C][E,F,C][E,F,C][E,F,C] | %6
 [E,F,C][E,F,C][E,F,C][E,F,C] [^D,F,C][D,F,C][D,F,C][D,F,C] | %7
 [=D,F,C][D,F,C][D,F,C][D,F,C] [D,F,C][D,F,C][D,F,C][D,F,C] | %8
 [D,=F,C][D,F,C][D,F,C][D,F,C] [D,F,B,][D,F,B,][D,F,B,][D,F,B,] | %9
 [C,E,B,][C,E,B,][C,E,A,][C,E,A,] [C,E,A,][C,E,A,][C,E,A,][C,E,A,] | %10
 [B,,E,A,][B,,E,A,][B,,^D,A,][B,,D,A,] [C,E,A,][C,E,A,][C,E,A,][C,E,A,] | %11
 [B,,^D,A,][B,,D,A,][B,,D,A,][B,,D,A,] [C,E,A,][C,E,A,][C,E,A,][C,E,A,] | [B,,^D,A,]2) z2 z4 | %13
 ([G,B,E][G,B,E][G,B,E][G,B,E] [G,B,E][G,B,E][G,B,E][G,B,E] | %14
 [F,A,E][F,A,E][F,A,E][F,A,E] [F,A,_E][F,A,E][F,A,E][F,A,E] | %15
 [E,=G,D][E,G,D][E,G,^C][E,G,C] [^C,E,^A,][C,E,A,])[=C,E,=A,][C,E,A,] | %16
 [B,,,B,,]([A,CFA][A,CFA][A,CFA]) [G,B,^DF][G,B,E][G,B,E][G,B,E] | %17
 [A,CE][A,CE]A,,[E,F,C] [B,,E,B,][B,,E,B,][C,E,A,][C,E,A,] | %18
 [B,,E,B,][B,,E,B,][B,,E,B,][B,,E,B,] [B,,^D,B,][B,,D,B,][B,,D,A,][B,,D,A,] | %19
 ([C,G,][C,G,][C,G,][C,G,] [C,_B,][C,B,][C,E,A,][C,E,A,] | %20
 [B,,E,A,][B,,E,A,][B,,E,^G,][B,,E,G,] [B,,E,=G,][B,,E,G,][B,,E,G,][B,,E,G,] | %21
 [_B,,C,G,]4) !fermata!z4 | z8 | ([=B,,,=B,,E,F,B,]4 [B,,,F,,B,,^D,F,]4 | %24
 !fermata![E,,,E,,E,G,B,]6) z2 |] %25

